!!!ONB: MCCC : IFC0052_04 : Extracted Monophonic Melody
!!!COM: Chopin, Frédéric
!!!OPR: Mazurkas
!!!OMV: 4
!!!SCT: Op.33
!!!ODT: 1837///
**kern
*thru
*staff1
*clefG2
*k[]
*a:
*M3/4
*MM152
=4
12d
12e
12d
4r
4r
=5
8.b
16cc
4dd
4a
=6
2cc
8b
8cc
=7
8dd
8ee
4ff
8.gg
16dd
=8
2.ee
=9
4ff#
2dd#
=10
4ff
2dd
=11
16ee
[8.b
2b]
=12
16cc
[8.g#
2g#]
=13
12b
12cc
12b
12a
12b
12cc
12.ee
24dd
12a
=14
2cc
8b
8cc
=15
20dd
20ee
20dd
20cc#
20dd
20dd#
20ee
20ff
20ff#
20gg
20gg#
20bb
20aa
20gg
20ff
=16
2.ee
=17
4r
2dd#
=18
24ee
24ff
24aa-
24gg
24ff#
24ff
2dd
=19
8ccc
16r
16bb
8gg#
8r
4g#
=20
2.a
=21
8.b
16cc
4dd
4a
=22
2cc
8b
8cc
=23
8dd
8cc#
12dd
12ee
12ff
8gg
16r
16dd
=24
2.ee
=25
4ff#
2dd#
=26
4ff
2dd
=27
16ee
[8.b
2b]
=28
16cc
[8.g#
4..g#]
16b
=29
24b
24b
24b
24b
24cc
24b
12a
12b
12cc
12ee
12dd
12a
=30
2cc
8b
8cc
=31
20dd
20ee
20dd
20cc#
20dd
20bb
20ff
20aa
20ee
20gg
20dd
20ff
20a
20g
20dd
=32
2.ee
=33
4r
2dd#
=34
24ee
24ff
24aa-
24gg
24ff#
24ff
2dd
=35
8ccc
16r
16bb
8gg#
8r
4g#
=36
2a
4e
=37
8ee
8r
8dd#
8b
8dd
8b
=38
12dd
12ee
12dd
8cc
16r
16aa
4a
=39
12ee
12ff
12ee
8dd#
16r
16b
8dd
8b
=40
12dd
12ee
12dd
8cc#
16r
16cc
4d#
=41
4ee
16dd#
8b
16r
16dd
8b
16r
=42
12dd
12ee
12dd
8cc
16r
16ccc
4a
=43
8b-
8a
4b
4b
=44
8b-
8a
[2b
=45
8.b]
16cc
4.dd
8a
=46
2cc
8b
8cc
=47
8.dd
16cc#
12dd
12ee
12ff
8gg
16r
16dd
=48
2.ee
=49
4ff#
2dd#
=50
4ff
2dd
=51
16ee
[8.b
2b]
=52
16cc
[8.g#
4..g#]
16b
=53
16b
16b
16cc
16b
12a
12b
12cc
12.ee
24dd
12a
=54
2cc
12b
12cc
12cc#
=55
20dd
20ee
20dd
20cc#
20dd
20dd#
20ee
20ff
20ff#
20gg
20gg#
20bb
20aa
20gg
20ff
=56
2.ee
=57
4r
2dd#
=58
24ee
24ff
24aa-
24gg
24ff#
24ff
2dd
=59
8ccc
16r
16bb
8gg#
8r
4g#
=60
2.a
=61
*k[f#c#g#]
8cc#
8b
4a
4f#
=62
2.e
=63
8cc#
8b
4a
4f#
=64
2.e
=65
8e
8f#
4g#
4a
=66
8b
8cc#
4dd
4dd#
=67
8ee
8dd
4b
4cc#
=68
8a
8cc#
2b
=69
8cc#
8b
4a
4f#
=70
2.e
=71
8cc#
8b
4a
4f#
=72
2.e
=73
8e
8f#
4g#
4a
=74
8b
8b#
4.cc#
8ff#
=75
8ee
8b
4.cc#
8ff#
=76
8ee
8dd#
4.dd
8b#
=77
8cc#
8b
4a
4f#
=78
2.e
=79
8cc#
8b
4a
4f#
=80
2.e
=81
8e
8f#
4g#
4a
=82
8b
8cc#
4dd
4dd#
=83
8ee
8dd
4b
8cc#
8b
=84
8a
8cc#
2b
=85
8cc#
8b
4a
4f#
=86
2.e
=87
8cc#
8b
4a
4f#
=88
2.e
=89
8e
8f#
4g#
4a
=90
8b
8cc#
4dd
4ee
=91
8ff
16r
16ee
4.ff
8ee
=92
8.ff
16ee
4.ff
[8b
=93
*k[]
8.b]
16cc
4dd
4a
=94
2cc
8b
8cc
=95
8dd
8cc#
12dd
12ee
12ff
8gg
16r
16dd
=96
2.ee
=97
4ff#
2dd#
=98
4ff
2dd
=99
16ee
[8.b
2b]
=100
16cc
[8.g#
4..g#]
16b
=101
12b
12cc
12b
12a
12b
12cc
12.ee
24dd
12a
=102
2cc
12b
12cc
12cc#
=103
12dd
12ccc
12bb
12cc
12b
12aa
12gg
12a
12g
=104
2.ee
=105
4r
2dd#
=106
24ee
24ff
24aa-
24gg
24ff#
24ff
2dd
=107
8eee
16r
16eee
8eee
8r
4g#
=108
2a
4ee[
=109
8ee]
16r
16dd#
8a
8r
4d#
=110
[2.dd#
=111
8dd#]
16r
16dd
8g#
8r
4d
=112
[2.dd
=113
8dd]
16r
16cc#
8g
8r
4c#
=114
2.cc
=115
8b
8cc
4dd
4a
=116
2cc
4ee[
=117
8ee]
16r
16dd#
8a
8r
4d#
=118
2.dd#[
=119
8dd#]
16r
16dd
8g#
8r
4d
=120
[2.dd
=121
8dd]
16r
16cc#
8g
8r
4c#
=122
2.cc
=123
8b
8cc
4dd
4a
=124
2.cc
=125
4r
4r
4a
=126
2cc
4r
=127
4r
4r
4cc
=128
[2.a
=129
2.a_
=130
2.a]
=131
2.r
=132
12d
12e
12d
4r
4r
==
*-
